X: 11092
T: MRS. MEIN'S STRATHSPEY
C: John Smith
P: Copyright.
%R: strathspey
B: W. Hamilton "Universal Tune-Book" Vol. 1 Glasgow 1844 p.109 #2
S: http://imslp.org/wiki/Hamilton's_Universal_Tune-Book_(Various)
Z: 2016 John Chambers <jc:trillian.mit.edu>
N: The last bar is missing a half beat; not fixed. (Perhaps one of the As should be lengthened.)
M: C
L: 1/16
K: A
% - - - - - - - - - - - - - - - - - - - - - - - - -
A2 |\
A,3A dcBA e3A dcBA | e3Af3A GB3B3c |\
A,3A dcBA e3A dcBA | (3(G2A2B2) E3G A3A,A,2 :|
|: e2 |\
ae3 ce3 agfe dcBA | d2c2B2^a2 b3BB3e |\
a3e c3e agfe dcBA | (3(G2A2B2) (3(E2F2G2) A3A,A,3e |
a3e c3e agfe dcBA | d3cB3^a b3BB3g |\
(3(a2f2a2) (3(g2e2g2) (3(f2d2f2) (3(e2c2e2) |\
(3(d2B2A2) (3(G2A2B2) AA,A,2 :|
% - - - - - - - - - - - - - - - - - - - - - - - - -

%%sep 1 1 500
%%sep 1 1 500

